X:80
T:Tantramar Marsh
R:reel
C:Paul S. Cranford
O:Cape Breton Island
S:http://www.cranfordpub.com
D:currently unrecorded
B:currently unpublished in book form
Z:psc, (re-formatted,updated 9/17/04)
N:
H:                                                        copyrights Cranford Publications, SOCAN
Q:333
L:1/8
M:C|
K:F
FG|A2 AG FGAc|f(c (3e/c/B/c) BAGB|A(F ~F2) CFAc|BAGF EFGB|
A2 AG FGAc|f(c (3e/c/B/c) BAGB|A(F ~F2) CFAF|GFEG F2:|
|:ce|f2 fg a(f ~f2)|dcAG A(F ~F2)|f2 fg a(f ~f2)|bagf d2 dc|
[1fefg a(f ~f2)|dcAG A(F ~F2)|C(F ~F2) CFAF|GFEG F2:|
[2f2 fg a(f ~f2)|bagf afde|fdcB A(F ~F2)|GFEG F2|]
